!!!OTL: Koenig und Marquise.
!!!OTL-incipit: Quand le roi entra dans Paris,
!!!ARE: Europa, Mitteleuropa, Deutschland / France, Lothringen
!!!YOR: 2, S. 30
!!    1904 gedruckt
!!!SCT: Q2035E
!!!TXL: @@FR
!!!YEM: Copyright 1995, estate of Helmut Schaffrath.
**kern	**text
*ICvox	*
*M6/8	*
*k[f#]	*
*G:	*
!LO:TX:a:t=Marquise J	!
{8d	Quand
8d	le
8d	roi
=1	=1
4g	en-
8g	-tra
4a	dans
8a	Pa-
=2	=2
4.b}	-ris,
{8cc	quand
8b	le
8a	roi
=3	=3
4g	en-
8g	-tra
4a	dans
8a	Pa-
=4	=4
4.b}	-ris,
{8g	il
8g	sa-
8a	-lu-
=5	=5
4.b	-a
8a	tou-
8b	-tes
8cc	ces
=6	=6
8b	da-
8a}	-mes.
{8a	La
8g	pre-
8a	-miér'
8a	qu'il
=7	=7
8b	a
8g	sa-
8g	-lu-
4.d}	-ée,
=8	=8
{8g	elle
8a	a
8b	ra-
4dd	-vi
8b	son
=9	=9
4.a	â-
[4.g	-me.
=10	=10
4.g]}	.
==	==
!!!AGN: Ballade, Frauenraub
!! Franzoesische Fassung der Ballade.
!!!ONB: ESAC (Essen Associative Code) Database: BALLADE
!!!AMT: compound duple
!!!AIN: vox
!!!EED: Helmut Schaffrath
!!!EEV: 1.0
!!!source: Deutsche Volkslieder mit ihren Melodien. Herausgegeben vom Deutschen Volksliedarchiv. Zweiter Band Balladen. Berlin 1939.
!!!page: 30
!!!ENC: Anna Maria Matuszewska
!!!EEV: 2025/02/17
*-	*-
